media/fixtures/test_look.cube
# 3D LUT Test Fixture
TITLE "TealAndOrangeTest"
LUT_3D_SIZE 2

0.0 0.0 0.0
1.0 0.2 0.1
0.1 0.9 0.2
0.9 0.8 0.3
0.0 0.2 0.9
0.8 0.3 0.8
0.1 0.9 0.9
1.0 1.0 1.0
